build/documents/UnsignSolid.svg

<svg xmlns="http://www.w3.org/2000/svg" fill="none" viewBox="0 0 24 24" focusable="false"><path d="M0 0H24V24H0z"/><path fill="#74767B" d="M20.8197 3.25752C21.0665 3.51603 21.0589 3.92752 20.8028 4.17661L18.9281 5.99999 20.8029 7.8234C21.059 8.07248 21.0665 8.48397 20.8198 8.74248 20.573 9.00099 20.1653 9.00863 19.9092 8.75954L18 6.90263 16.0908 8.75954C15.8347 9.00863 15.427 9.00099 15.1802 8.74248 14.9335 8.48397 14.941 8.07248 15.1971 7.8234L17.0719 5.99999 15.1972 4.17661C14.9411 3.92752 14.9335 3.51603 15.1803 3.25752 15.427 2.99902 15.8347 2.99138 16.0908 3.24046L18 5.09735 19.9092 3.24046C20.1653 2.99138 20.573 2.99902 20.8197 3.25752ZM9.10676 18.8349C8.55417 19.3011 7.83343 19.9092 6.65244 19.9092 4.58092 19.9092 3.61403 18.5611 3.23261 18.0293 3.19894 17.9823 3.16983 17.9417 3.14493 17.909 2.92757 17.6233 2.98298 17.2155 3.26869 16.9981 3.5544 16.7808 3.96221 16.8362 4.17956 17.1219 4.21297 17.1658 4.24801 17.2137 4.28518 17.2646 4.6649 17.7839 5.26833 18.6092 6.65245 18.6092 7.33539 18.6092 7.7328 18.2928 8.30111 17.8138L8.32979 17.7896C8.88411 17.322 9.6069 16.7123 10.7938 16.7123 12.7739 16.7123 13.8432 18.1105 14.2552 18.6493 14.3131 18.725 14.358 18.7837 14.3906 18.8192 14.6336 19.0835 14.6164 19.4946 14.3522 19.7376 14.0879 19.9806 13.6767 19.9634 13.4337 19.6992 13.3468 19.6046 13.2574 19.4936 13.1615 19.3743 12.6923 18.7911 12.0657 18.0123 10.7938 18.0123 10.106 18.0123 9.70604 18.3297 9.139 18.8077L9.10676 18.8349Z"/><path fill="#74767B" d="M9.10676 18.8349C8.55417 19.3011 7.83343 19.9092 6.65244 19.9092 4.58092 19.9092 3.61403 18.5611 3.23261 18.0293 3.19894 17.9823 3.16983 17.9417 3.14493 17.909 2.92757 17.6233 2.98298 17.2155 3.26869 16.9981 3.5544 16.7808 3.96221 16.8362 4.17956 17.1219 4.21297 17.1658 4.24801 17.2137 4.28518 17.2646 4.6649 17.7839 5.26833 18.6092 6.65245 18.6092 7.33539 18.6092 7.7328 18.2928 8.30111 17.8138L8.32979 17.7896C8.88411 17.322 9.6069 16.7123 10.7938 16.7123 12.7739 16.7123 13.8432 18.1105 14.2552 18.6493 14.3131 18.725 14.358 18.7837 14.3906 18.8192 14.6336 19.0835 14.6164 19.4946 14.3522 19.7376 14.0879 19.9806 13.6767 19.9634 13.4337 19.6992 13.3468 19.6046 13.2574 19.4936 13.1615 19.3743 12.6923 18.7911 12.0657 18.0123 10.7938 18.0123 10.106 18.0123 9.70604 18.3297 9.139 18.8077L9.10676 18.8349ZM7.40556 4.98083C7.91336 4.47303 8.73666 4.47303 9.24446 4.98083L10.3775 6.11389C10.6483 6.38469 10.6512 6.82283 10.3841 7.09721L8.36502 9.17073C8.09278 9.45033 7.64447 9.45331 7.36853 9.17737L6.24865 8.05748C5.74085 7.54968 5.74085 6.72638 6.24865 6.21858L7.40556 4.98083Z"/><path fill="#74767B" d="M7.40556 4.98083C7.91336 4.47303 8.73666 4.47303 9.24446 4.98083L10.3775 6.11389C10.6483 6.38469 10.6512 6.82283 10.3841 7.09721L8.36502 9.17073C8.09278 9.45033 7.64447 9.45331 7.36853 9.17737L6.24865 8.05748C5.74085 7.54968 5.74085 6.72638 6.24865 6.21858L7.40556 4.98083ZM9.27802 11.0869C9.00722 10.8161 9.0043 10.3779 9.27147 10.1035L11.2905 8.03001C11.5628 7.75042 12.0111 7.74744 12.287 8.02338L19.7192 15.4556C20.1169 15.8533 20.3948 16.3547 20.5213 16.9027L20.9208 18.6342C21.1369 19.5705 20.8383 19.9499 19.902 19.7339L18.1705 19.3343C17.6225 19.2078 17.1211 18.9299 16.7234 18.5323L9.27802 11.0869Z"/><path fill="#74767B" d="M9.27802 11.0869C9.00722 10.8161 9.0043 10.3779 9.27147 10.1035L11.2905 8.03001C11.5628 7.75042 12.0111 7.74744 12.287 8.02338L19.7192 15.4556C20.1169 15.8533 20.3948 16.3547 20.5213 16.9027L20.9208 18.6342C21.1369 19.5705 20.8383 19.9499 19.902 19.7339L18.1705 19.3343C17.6225 19.2078 17.1211 18.9299 16.7234 18.5323L9.27802 11.0869Z"/></svg>

<svg xmlns="http://www.w3.org/2000/svg" fill="none" viewBox="0 0 24 24" focusable="false"><g fill="#74767B"><path d="M20.81 3.25c.25.26.24.67-.01.92L18.92 6l1.88 1.82c.25.25.26.66.01.92-.24.26-.65.26-.91.01L18 6.9l-1.91 1.85c-.26.25-.67.25-.91-.01a.66.66 0 0 1 .01-.92L17.07 6l-1.88-1.83a.66.66 0 0 1-.01-.92c.24-.26.65-.26.91-.01L18 5.09l1.9-1.85c.26-.25.67-.25.91.01M9.1 18.83c-.55.47-1.27 1.07-2.45 1.07-2.07 0-3.04-1.34-3.42-1.88a.5.5 0 0 1-.09-.12.65.65 0 0 1 .12-.91c.29-.21.7-.16.91.13.04.04.07.09.11.14.38.52.98 1.34 2.37 1.34.68 0 1.08-.31 1.65-.79l.02-.03c.56-.46 1.28-1.07 2.47-1.07 1.98 0 3.05 1.4 3.46 1.93.06.08.1.14.14.17.24.27.22.68-.04.92a.64.64 0 0 1-.92-.04c-.09-.09-.18-.2-.27-.32-.47-.58-1.1-1.36-2.37-1.36-.69 0-1.09.31-1.66.79zM7.4 4.98c.51-.51 1.33-.51 1.84 0l1.13 1.13c.27.27.28.71.01.98L8.36 9.17a.7.7 0 0 1-1 0L6.24 8.05c-.5-.51-.5-1.33 0-1.84zM9.27 11.08a.694.694 0 0 1 0-.98l2.02-2.07c.27-.28.72-.29.99-.01l7.43 7.43c.4.4.68.9.81 1.45l.4 1.73c.21.94-.09 1.32-1.02 1.1l-1.73-.4c-.55-.13-1.05-.41-1.45-.8z"/></g></svg>
